!!!OTL: FRIEDE SEI UM DIESEN GRABSTEIN HER
!!!ARE: Europa, Mitteleuropa, Deutschland
!!!SCT: F0352
!!!YEM: Copyright 1995, estate of Helmut Schaffrath.
**kern
*ICvox
*Ivox
*M4/4
*k[b-e-a-]
*E-:
{4e-
4f
=1
4.g
8g
4.a-
8f
=2
4e-
4d
4c
4r}
=3
{4.cc
8cc
8b-
8ee-
8g
8b-
=4
2a-
4g
4r}
=5
{4.f
8ee-
8ee-
8dd
8cc
8b-
=6
8b-
8an
8g
8f
4b-
4cc}
=7
{4dd
8ee-
8cc
4b-
4cc
=8
4b-
2r}
{8b-
8bn
=9
2cc
8r
8a-
8f
8b-
=10
4g
4r}
{4e-
4f
=11
4.g
8g
4.a-
8f
=12
4e-
4d
4c}
{8c
8cc
=13
4.cc
8cc
8b-
8ee-
8g
8b-
=14
4.b-
8a-
4g
4g}
=15
{4.f
8ee-
8ee-
8dd
8cc
8b-
=16
8b-
8an
8g
8f
4b-
4cc}
=17
{4dd
8ee-
8cc
4b-
4cc
=18
4b-
4r}
{4e-
4f
=19
4.g
8g
4.a-
8f
=20
4e-
4d
4c
4r
=21
2r}
{4g
4g
=22
4g
4f
4e-
4d
=23
4g
4f
4e-
4d}
=24
{4.g
8cc
8cc
8a-
4a-
=25
8g
8g
8g
8g
8cc
8a-
4a-}
=26
{4.g
8cc
4.cc
8f#
=27
4g
4r}
{4e-
4f
=28
4.g
8g
4.a-
8f
=29
4e-
4d
4c
4r}
=30
{4.cc
8cc
8b-
8ee-
8g
8b-
=31
2a-
4g
4r}
=32
{4.f
8ee-
8ee-
8dd
8cc
8b-
=33
8b-
8an
8g
8f
4b-
4cc}
=34
{4dd
8ee-
8cc
4b-
4cc
=35
4b-
2r}
{8b-
8bn
=36
2cc
8r
8a-
8f
8b-
=37
4g
4r}
==
!!!AGN: Jugend - Lied, Toten - Klage, Trauer
!!!ONB: ESAC (Essen Associative Code) Database: FINK
!!!AMT: simple quadruple
!!!AIN: vox
!!!EED: Helmut Schaffrath
!!!EEV: 1.0
*-
